!!!COM: Music21
!!!OTL: Marcha Procesional
!!!OMV: pezas_marchas_marcha-procesional-3_marcha-procesional-partitura-1.musicxml
**kern
*I"Bagpipes
*I'Bag
*clefG^2
*k[]
*M2/4
=1
!LO:TX:a:t=Adagio
*MM70
!LO:TX:a:t=[quarter]=70
4.cc
8dd
=||
[2ee
=
4ee]
4dd
=
2cc
=
4.ee
8ff
=
[2gg
=
4gg]
8ffL
8eeJ
=
2dd
=
4.dd
8ee
=
2ff
=
2gg
=
2ee
=
4dd
8ccL
8ddJ
=
[2ee
=
4ee]
4dd
=
2cc
!!linebreak:original
=
4.cc
8dd
=||
[2ee
=
4ee]
4dd
=
2cc
=
4.ee
8ff
=
[2gg
=
4gg]
8ffL
8eeJ
=
2dd
=
4.dd
8ee
=
2ff
=
2gg
=
2ee
!!linebreak:original
=
4dd
8eeL
8ddJ
=
2cc
=
4.cc
8cc
=
2cc
=
4.ee
8ff
=||
2gg
=
[2gg
=
4gg]
4aa
=
4.gg
8ff
=
2ee
=
[2ee
=
4ee]
8ccL
8ddJ
=
4ee
8ffL
8eeJ
=
2dd
=
[2dd
!!linebreak:original
=
4dd]
8bL
8ccJ
=
4dd
8eeL
8ffJ
!!linebreak:original
=
[2ee
=
8eeL]
8ffJ
8eeL
8ddJ
=
2cc
=
4.ee
8ff
=||
2gg
=
[2gg
=
4gg]
4aa
=
4.gg
8ff
=
2ee
=
[2ee
=
4ee]
8ccL
8ddJ
=
4ee
8ffL
8eeJ
=
2dd
=
[2dd
=
4dd]
8bL
8ccJ
!!linebreak:original
=
4dd
8eeL
8ddJ
=
2cc
=
4.cc
8cc
=
2cc
=
4.cc
8dd
=||
4dd
8eeL
8ddJ
=
2cc
=
4.cc
8cc
=
8cc
8r
4r
==
*-
